X:849
T:Reel 849
M:4/4
K:Gmaj
L:1/8
a|g2bg dBAG|g2bg ac'ba|g2Be dcBd|AdAG FGEd|g2bg dBAG|g2bg ac'ba|bgaf gedB|cedc BGG|c'|bgag bgag|bgd'g fgab|bgd'g bggf|edec AGGc'|bgag bgag|fgab c'2bc'| (3bc'd' af gedc|BGAc BGG|
